X: 3857
T: Black Pat
R: reel
M: 4/4
K: Gmajor
|:~G3B eBdB|AGBA G~E3|G3g edd^c|degb a2ga|
bg~g2 aged|~B3d AGE2|~G3B e^cdB|AGBA G3D:|
D~G3 GEDE|~G3A Be~e2|d~B3 BABG|cABA G~E3|
~G3A G~E3|DEGA Bdga|bg~g2 ageg|dgba g3e|
d~B3 BAGE|DEGA B3e|d~B3 BABG|cABA G~E3|
~G3A G~E3|DEGB dega|bg~g2 ageg|dgba g3a|
|:b2gb aged|gedB G4|b2gd b2gd|eaa^g a2ga|
b~g3 aged|gedB dega|bgaf gedB|~A3B G4:|

